bernoullicharts/2014_sub_x-0_5_bound.svg

<?xml version="1.0" encoding="utf-8" standalone="no"?>
<!DOCTYPE svg PUBLIC "-//W3C//DTD SVG 1.1//EN"
  "http://www.w3.org/Graphics/SVG/1.1/DTD/svg11.dtd">
<!-- Created with matplotlib (https://matplotlib.org/) -->
<svg height="345.6pt" version="1.1" viewBox="0 0 460.8 345.6" width="460.8pt" xmlns="http://www.w3.org/2000/svg" xmlns:xlink="http://www.w3.org/1999/xlink">
 <defs>
  <style type="text/css">
*{stroke-linecap:butt;stroke-linejoin:round;}
  </style>
 </defs>
 <g id="figure_1">
  <g id="patch_1">
   <path d="M 0 345.6 
L 460.8 345.6 
L 460.8 0 
L 0 0 
z
" style="fill:#ffffff;"/>
  </g>
  <g id="axes_1">
   <g id="patch_2">
    <path d="M 57.6 307.584 
L 414.72 307.584 
L 414.72 41.472 
L 57.6 41.472 
z
" style="fill:#ffffff;"/>
   </g>
   <g id="matplotlib.axis_1">
    <g id="xtick_1">
     <g id="line2d_1">
      <defs>
       <path d="M 0 0 
L 0 3.5 
" id="mebac0ca397" style="stroke:#000000;stroke-width:0.8;"/>
      </defs>
      <g>
       <use style="stroke:#000000;stroke-width:0.8;" x="70.519926" xlink:href="#mebac0ca397" y="307.584"/>
      </g>
     </g>
     <g id="text_1">
      <text style="font-family:DejaVu Sans;font-size:10px;font-style:normal;font-weight:normal;text-anchor:middle;" transform="rotate(-0, 70.519926, 322.182437)" x="70.519926" y="322.182437">0.5</text>
     </g>
    </g>
    <g id="xtick_2">
     <g id="line2d_2">
      <g>
       <use style="stroke:#000000;stroke-width:0.8;" x="136.126516" xlink:href="#mebac0ca397" y="307.584"/>
      </g>
     </g>
     <g id="text_2">
      <text style="font-family:DejaVu Sans;font-size:10px;font-style:normal;font-weight:normal;text-anchor:middle;" transform="rotate(-0, 136.126516, 322.182437)" x="136.126516" y="322.182437">0.6</text>
     </g>
    </g>
    <g id="xtick_3">
     <g id="line2d_3">
      <g>
       <use style="stroke:#000000;stroke-width:0.8;" x="201.733107" xlink:href="#mebac0ca397" y="307.584"/>
      </g>
     </g>
     <g id="text_3">
      <text style="font-family:DejaVu Sans;font-size:10px;font-style:normal;font-weight:normal;text-anchor:middle;" transform="rotate(-0, 201.733107, 322.182437)" x="201.733107" y="322.182437">0.7</text>
     </g>
    </g>
    <g id="xtick_4">
     <g id="line2d_4">
      <g>
       <use style="stroke:#000000;stroke-width:0.8;" x="267.339698" xlink:href="#mebac0ca397" y="307.584"/>
      </g>
     </g>
     <g id="text_4">
      <text style="font-family:DejaVu Sans;font-size:10px;font-style:normal;font-weight:normal;text-anchor:middle;" transform="rotate(-0, 267.339698, 322.182437)" x="267.339698" y="322.182437">0.8</text>
     </g>
    </g>
    <g id="xtick_5">
     <g id="line2d_5">
      <g>
       <use style="stroke:#000000;stroke-width:0.8;" x="332.946289" xlink:href="#mebac0ca397" y="307.584"/>
      </g>
     </g>
     <g id="text_5">
      <text style="font-family:DejaVu Sans;font-size:10px;font-style:normal;font-weight:normal;text-anchor:middle;" transform="rotate(-0, 332.946289, 322.182437)" x="332.946289" y="322.182437">0.9</text>
     </g>
    </g>
    <g id="xtick_6">
     <g id="line2d_6">
      <g>
       <use style="stroke:#000000;stroke-width:0.8;" x="398.552879" xlink:href="#mebac0ca397" y="307.584"/>
      </g>
     </g>
     <g id="text_6">
      <text style="font-family:DejaVu Sans;font-size:10px;font-style:normal;font-weight:normal;text-anchor:middle;" transform="rotate(-0, 398.552879, 322.182437)" x="398.552879" y="322.182437">1.0</text>
     </g>
    </g>
    <g id="text_7">
     <text style="font-family:DejaVu Sans;font-size:10px;font-style:normal;font-weight:normal;text-anchor:middle;" transform="rotate(-0, 236.16, 335.860562)" x="236.16" y="335.860562">Input Coin's Heads Probability (λ)</text>
    </g>
   </g>
   <g id="matplotlib.axis_2">
    <g id="ytick_1">
     <g id="line2d_7">
      <defs>
       <path d="M 0 0 
L -3.5 0 
" id="m734a729be4" style="stroke:#000000;stroke-width:0.8;"/>
      </defs>
      <g>
       <use style="stroke:#000000;stroke-width:0.8;" x="57.6" xlink:href="#m734a729be4" y="295.489843"/>
      </g>
     </g>
     <g id="text_8">
      <text style="font-family:DejaVu Sans;font-size:10px;font-style:normal;font-weight:normal;text-anchor:end;" transform="rotate(-0, 50.6, 299.289061)" x="50.6" y="299.289061">0</text>
     </g>
    </g>
    <g id="ytick_2">
     <g id="line2d_8">
      <g>
       <use style="stroke:#000000;stroke-width:0.8;" x="57.6" xlink:href="#m734a729be4" y="249.420022"/>
      </g>
     </g>
     <g id="text_9">
      <text style="font-family:DejaVu Sans;font-size:10px;font-style:normal;font-weight:normal;text-anchor:end;" transform="rotate(-0, 50.6, 253.219241)" x="50.6" y="253.219241">10</text>
     </g>
    </g>
    <g id="ytick_3">
     <g id="line2d_9">
      <g>
       <use style="stroke:#000000;stroke-width:0.8;" x="57.6" xlink:href="#m734a729be4" y="203.350201"/>
      </g>
     </g>
     <g id="text_10">
      <text style="font-family:DejaVu Sans;font-size:10px;font-style:normal;font-weight:normal;text-anchor:end;" transform="rotate(-0, 50.6, 207.14942)" x="50.6" y="207.14942">20</text>
     </g>
    </g>
    <g id="ytick_4">
     <g id="line2d_10">
      <g>
       <use style="stroke:#000000;stroke-width:0.8;" x="57.6" xlink:href="#m734a729be4" y="157.28038"/>
      </g>
     </g>
     <g id="text_11">
      <text style="font-family:DejaVu Sans;font-size:10px;font-style:normal;font-weight:normal;text-anchor:end;" transform="rotate(-0, 50.6, 161.079599)" x="50.6" y="161.079599">30</text>
     </g>
    </g>
    <g id="ytick_5">
     <g id="line2d_11">
      <g>
       <use style="stroke:#000000;stroke-width:0.8;" x="57.6" xlink:href="#m734a729be4" y="111.21056"/>
      </g>
     </g>
     <g id="text_12">
      <text style="font-family:DejaVu Sans;font-size:10px;font-style:normal;font-weight:normal;text-anchor:end;" transform="rotate(-0, 50.6, 115.009778)" x="50.6" y="115.009778">40</text>
     </g>
    </g>
    <g id="ytick_6">
     <g id="line2d_12">
      <g>
       <use style="stroke:#000000;stroke-width:0.8;" x="57.6" xlink:href="#m734a729be4" y="65.140739"/>
      </g>
     </g>
     <g id="text_13">
      <text style="font-family:DejaVu Sans;font-size:10px;font-style:normal;font-weight:normal;text-anchor:end;" transform="rotate(-0, 50.6, 68.939958)" x="50.6" y="68.939958">50</text>
     </g>
    </g>
    <g id="text_14">
     <text style="font-family:DejaVu Sans;font-size:10px;font-style:normal;font-weight:normal;text-anchor:middle;" transform="rotate(-90, 31.795312, 174.528)" x="31.795312" y="174.528">Coin Flips Needed</text>
    </g>
   </g>
   <g id="line2d_13">
    <path clip-path="url(#p755b596264)" d="M 73.832727 66.264402 
L 80.45833 218.360833 
L 87.083933 248.809346 
L 93.709536 261.880241 
L 100.335139 269.159128 
L 106.960742 273.805737 
L 113.586345 277.035366 
L 120.211948 279.41517 
L 126.837551 281.24542 
L 133.463154 282.699971 
L 140.088757 283.886462 
L 146.71436 284.875101 
L 153.339963 285.713645 
L 159.965566 286.435711 
L 166.591169 287.065654 
L 173.216772 287.621555 
L 179.842375 288.117123 
L 186.467978 288.562947 
L 193.093581 288.967335 
L 199.719184 289.336904 
L 206.344787 289.676992 
L 212.97039 289.991954 
L 219.595993 290.285386 
L 226.221596 290.560281 
L 232.847199 290.819158 
L 239.472801 291.064153 
L 246.098404 291.297093 
L 252.724007 291.519553 
L 259.34961 291.732902 
L 265.975213 291.938337 
L 272.600816 292.136915 
L 279.226419 292.329572 
L 285.852022 292.517148 
L 292.477625 292.700398 
L 299.103228 292.88001 
L 305.728831 293.05661 
L 312.354434 293.230779 
L 318.980037 293.403054 
L 325.60564 293.573941 
L 332.231243 293.743916 
L 338.856846 293.913433 
L 345.482449 294.082931 
L 352.108052 294.252832 
L 358.733655 294.423551 
L 365.359258 294.595498 
L 371.984861 294.769078 
L 378.610464 294.944702 
L 385.236067 295.12278 
L 391.86167 295.303736 
L 398.487273 295.488 
" style="fill:none;stroke:#1f77b4;stroke-linecap:square;stroke-width:1.5;"/>
   </g>
   <g id="line2d_14">
    <path clip-path="url(#p755b596264)" d="M 153.339963 120.544305 
M 179.842375 179.955946 
L 186.467978 179.790095 
M 206.344787 165.361027 
L 212.97039 176.224291 
M 226.221596 201.728543 
L 232.847199 209.956613 
M 246.098404 183.770527 
L 252.724007 223.878913 
L 259.34961 207.100285 
L 265.975213 226.901094 
L 272.600816 226.431181 
L 279.226419 218.286037 
M 292.477625 224.560747 
L 299.103228 223.565638 
L 305.728831 217.475208 
L 312.354434 235.147591 
L 318.980037 236.373049 
L 325.60564 237.110166 
L 332.231243 238.870033 
M 345.482449 239.293875 
L 352.108052 243.513871 
L 358.733655 239.69929 
L 365.359258 239.948067 
L 371.984861 247.263954 
L 378.610464 243.900857 
L 385.236067 244.426053 
L 391.86167 245.190812 
L 398.487273 241.597366 
" style="fill:none;stroke:#ff7f0e;stroke-linecap:square;stroke-width:1.5;"/>
   </g>
   <g id="line2d_15">
    <path clip-path="url(#p755b596264)" d="M 199.719184 95.187476 
M 219.595993 53.568 
M 232.847199 84.517706 
L 239.472801 103.848602 
M 252.724007 121.907972 
M 265.975213 141.275725 
L 272.600816 135.590709 
L 279.226419 143.238299 
L 285.852022 143.818779 
L 292.477625 129.970191 
L 299.103228 149.67886 
L 305.728831 186.792708 
L 312.354434 173.837874 
L 318.980037 164.605482 
L 325.60564 157.400162 
L 332.231243 174.326214 
L 338.856846 157.446232 
L 345.482449 179.292541 
L 352.108052 187.483755 
L 358.733655 179.006908 
L 365.359258 185.862097 
L 371.984861 189.556897 
L 378.610464 186.857205 
L 385.236067 196.86357 
L 391.86167 194.440298 
L 398.487273 191.473401 
" style="fill:none;stroke:#2ca02c;stroke-linecap:square;stroke-width:1.5;"/>
   </g>
   <g id="line2d_16">
    <path clip-path="url(#p755b596264)" d="M 206.344787 153.81593 
L 212.97039 165.425525 
M 239.472801 163.287885 
M 252.724007 179.808523 
L 259.34961 190.045237 
L 265.975213 194.274446 
M 292.477625 195.407764 
L 299.103228 200.503086 
L 305.728831 209.27478 
M 318.980037 207.091071 
L 325.60564 210.472595 
L 332.231243 217.180361 
L 338.856846 224.791096 
L 345.482449 211.817834 
L 352.108052 229.259868 
L 358.733655 217.567348 
L 365.359258 232.595323 
L 371.984861 224.938519 
L 378.610464 220.08276 
L 385.236067 219.723415 
L 391.86167 220.073546 
L 398.487273 237.478724 
" style="fill:none;stroke:#d62728;stroke-linecap:square;stroke-width:1.5;"/>
   </g>
   <g id="patch_3">
    <path d="M 57.6 307.584 
L 57.6 41.472 
" style="fill:none;stroke:#000000;stroke-linecap:square;stroke-linejoin:miter;stroke-width:0.8;"/>
   </g>
   <g id="patch_4">
    <path d="M 414.72 307.584 
L 414.72 41.472 
" style="fill:none;stroke:#000000;stroke-linecap:square;stroke-linejoin:miter;stroke-width:0.8;"/>
   </g>
   <g id="patch_5">
    <path d="M 57.6 307.584 
L 414.72 307.584 
" style="fill:none;stroke:#000000;stroke-linecap:square;stroke-linejoin:miter;stroke-width:0.8;"/>
   </g>
   <g id="patch_6">
    <path d="M 57.6 41.472 
L 414.72 41.472 
" style="fill:none;stroke:#000000;stroke-linecap:square;stroke-linejoin:miter;stroke-width:0.8;"/>
   </g>
   <g id="text_15">
    <text style="font-family:DejaVu Sans;font-size:12px;font-style:normal;font-weight:normal;text-anchor:middle;" transform="rotate(-0, 236.16, 35.472)" x="236.16" y="35.472">Coin Flips for 2014 Sub. x-0.5</text>
   </g>
   <g id="legend_1">
    <g id="patch_7">
     <path d="M 201.105937 108.1845 
L 407.72 108.1845 
Q 409.72 108.1845 409.72 106.1845 
L 409.72 48.472 
Q 409.72 46.472 407.72 46.472 
L 201.105937 46.472 
Q 199.105937 46.472 199.105937 48.472 
L 199.105937 106.1845 
Q 199.105937 108.1845 201.105937 108.1845 
z
" style="fill:#ffffff;opacity:0.8;stroke:#cccccc;stroke-linejoin:miter;"/>
    </g>
    <g id="line2d_17">
     <path d="M 203.105937 54.570438 
L 223.105937 54.570438 
" style="fill:none;stroke:#1f77b4;stroke-linecap:square;stroke-width:1.5;"/>
    </g>
    <g id="line2d_18"/>
    <g id="text_16">
     <text style="font-family:DejaVu Sans;font-size:10px;font-style:normal;font-weight:normal;text-anchor:start;" transform="rotate(-0, 231.105937, 58.070438)" x="231.105937" y="58.070438">Coin Flip Lower Bound</text>
    </g>
    <g id="line2d_19">
     <path d="M 203.105937 69.248563 
L 223.105937 69.248563 
" style="fill:none;stroke:#ff7f0e;stroke-linecap:square;stroke-width:1.5;"/>
    </g>
    <g id="line2d_20"/>
    <g id="text_17">
     <text style="font-family:DejaVu Sans;font-size:10px;font-style:normal;font-weight:normal;text-anchor:start;" transform="rotate(-0, 231.105937, 72.748563)" x="231.105937" y="72.748563">Avg. Coins Flipped 2014 Sub. x-0.5</text>
    </g>
    <g id="line2d_21">
     <path d="M 203.105937 83.926688 
L 223.105937 83.926688 
" style="fill:none;stroke:#2ca02c;stroke-linecap:square;stroke-width:1.5;"/>
    </g>
    <g id="line2d_22"/>
    <g id="text_18">
     <text style="font-family:DejaVu Sans;font-size:10px;font-style:normal;font-weight:normal;text-anchor:start;" transform="rotate(-0, 231.105937, 87.426688)" x="231.105937" y="87.426688">Avg. Coins Flipped 2016 Sub. x-0.5</text>
    </g>
    <g id="line2d_23">
     <path d="M 203.105937 98.604813 
L 223.105937 98.604813 
" style="fill:none;stroke:#d62728;stroke-linecap:square;stroke-width:1.5;"/>
    </g>
    <g id="line2d_24"/>
    <g id="text_19">
     <text style="font-family:DejaVu Sans;font-size:10px;font-style:normal;font-weight:normal;text-anchor:start;" transform="rotate(-0, 231.105937, 102.104813)" x="231.105937" y="102.104813">Avg. Coins Flipped 2019 Sub. x-0.5</text>
    </g>
   </g>
  </g>
 </g>
 <defs>
  <clipPath id="p755b596264">
   <rect height="266.112" width="357.12" x="57.6" y="41.472"/>
  </clipPath>
 </defs>
</svg>

<svg height="460.8" viewBox="0 0 460.8 345.6" width="614.4" xmlns="http://www.w3.org/2000/svg" xmlns:xlink="http://www.w3.org/1999/xlink"><defs><style>*{stroke-linecap:butt;stroke-linejoin:round}</style></defs><g id="figure_1"><path d="M0 345.6h460.8V0H0z" fill="#fff" id="patch_1"/><g id="axes_1"><path d="M57.6 307.584h357.12V41.472H57.6z" fill="#fff" id="patch_2"/><g id="matplotlib.axis_1"><g id="xtick_1"><g id="line2d_1"><defs><path d="M0 0v3.5" id="mebac0ca397" stroke="#000" stroke-width=".8"/></defs><use x="70.52" xlink:href="#mebac0ca397" y="307.584" stroke="#000" stroke-width=".8"/></g><text x="70.52" y="322.182" font-family="DejaVu Sans" font-size="10" font-weight="400" text-anchor="middle" id="text_1">0.5</text></g><g id="xtick_2"><use x="136.127" xlink:href="#mebac0ca397" y="307.584" stroke="#000" stroke-width=".8" id="line2d_2"/><text x="136.127" y="322.182" font-family="DejaVu Sans" font-size="10" font-weight="400" text-anchor="middle" id="text_2">0.6</text></g><g id="xtick_3"><use x="201.733" xlink:href="#mebac0ca397" y="307.584" stroke="#000" stroke-width=".8" id="line2d_3"/><text x="201.733" y="322.182" font-family="DejaVu Sans" font-size="10" font-weight="400" text-anchor="middle" id="text_3">0.7</text></g><g id="xtick_4"><use x="267.34" xlink:href="#mebac0ca397" y="307.584" stroke="#000" stroke-width=".8" id="line2d_4"/><text x="267.34" y="322.182" font-family="DejaVu Sans" font-size="10" font-weight="400" text-anchor="middle" id="text_4">0.8</text></g><g id="xtick_5"><use x="332.946" xlink:href="#mebac0ca397" y="307.584" stroke="#000" stroke-width=".8" id="line2d_5"/><text x="332.946" y="322.182" font-family="DejaVu Sans" font-size="10" font-weight="400" text-anchor="middle" id="text_5">0.9</text></g><g id="xtick_6"><use x="398.553" xlink:href="#mebac0ca397" y="307.584" stroke="#000" stroke-width=".8" id="line2d_6"/><text x="398.553" y="322.182" font-family="DejaVu Sans" font-size="10" font-weight="400" text-anchor="middle" id="text_6">1.0</text></g><text x="236.16" y="335.861" font-family="DejaVu Sans" font-size="10" font-weight="400" text-anchor="middle" id="text_7">Input Coin&apos;s Heads Probability (λ)</text></g><g id="matplotlib.axis_2"><g id="ytick_1"><g id="line2d_7"><defs><path d="M0 0h-3.5" id="m734a729be4" stroke="#000" stroke-width=".8"/></defs><use x="57.6" xlink:href="#m734a729be4" y="295.49" stroke="#000" stroke-width=".8"/></g><text x="50.6" y="299.289" font-family="DejaVu Sans" font-size="10" font-weight="400" text-anchor="end" id="text_8">0</text></g><g id="ytick_2"><use x="57.6" xlink:href="#m734a729be4" y="249.42" stroke="#000" stroke-width=".8" id="line2d_8"/><text x="50.6" y="253.219" font-family="DejaVu Sans" font-size="10" font-weight="400" text-anchor="end" id="text_9">10</text></g><g id="ytick_3"><use x="57.6" xlink:href="#m734a729be4" y="203.35" stroke="#000" stroke-width=".8" id="line2d_9"/><text x="50.6" y="207.149" font-family="DejaVu Sans" font-size="10" font-weight="400" text-anchor="end" id="text_10">20</text></g><g id="ytick_4"><use x="57.6" xlink:href="#m734a729be4" y="157.28" stroke="#000" stroke-width=".8" id="line2d_10"/><text x="50.6" y="161.08" font-family="DejaVu Sans" font-size="10" font-weight="400" text-anchor="end" id="text_11">30</text></g><g id="ytick_5"><use x="57.6" xlink:href="#m734a729be4" y="111.211" stroke="#000" stroke-width=".8" id="line2d_11"/><text x="50.6" y="115.01" font-family="DejaVu Sans" font-size="10" font-weight="400" text-anchor="end" id="text_12">40</text></g><g id="ytick_6"><use x="57.6" xlink:href="#m734a729be4" y="65.141" stroke="#000" stroke-width=".8" id="line2d_12"/><text x="50.6" y="68.94" font-family="DejaVu Sans" font-size="10" font-weight="400" text-anchor="end" id="text_13">50</text></g><text transform="rotate(-90 31.795 174.528)" x="31.795" y="174.528" font-family="DejaVu Sans" font-size="10" font-weight="400" text-anchor="middle" id="text_14">Coin Flips Needed</text></g><path clip-path="url(#p755b596264)" d="M73.833 66.264l6.625 152.097 6.626 30.448 6.626 13.071 6.625 7.28 6.626 4.646 6.625 3.23 6.626 2.38 6.626 1.83 6.625 1.454 6.626 1.186 6.625.99 6.626.838 6.626.722 6.625.63 6.626.556 6.625.495 6.626.446 6.626.404 6.625.37 6.626.34 6.625.315 6.626.293 6.626.275 6.625.26 6.626.244 6.625.233 6.626.223 6.626.213 6.625.205 6.626.199 6.625.193 6.626.187 6.626.183 6.625.18 6.626.177 6.625.174 6.626.172 6.626.17 6.625.17 6.626.17 6.625.17 6.626.17 6.626.17 6.625.172 6.626.174 6.625.176 6.626.178 6.626.18 6.625.185" fill="none" stroke="#1f77b4" stroke-linecap="square" stroke-width="1.5" id="line2d_13"/><path clip-path="url(#p755b596264)" d="M179.842 179.956l6.626-.166m19.877-14.429l6.625 10.863m13.252 25.505l6.625 8.228m13.251-26.186l6.626 40.108 6.626-16.779 6.625 19.801 6.626-.47 6.625-8.145m13.252 6.275l6.625-.995 6.626-6.09 6.625 17.672 6.626 1.225 6.626.737 6.625 1.76m13.251.424l6.626 4.22 6.626-3.815 6.625.25 6.626 7.315 6.625-3.363 6.626.525 6.626.765 6.625-3.594" fill="none" stroke="#ff7f0e" stroke-linecap="square" stroke-width="1.5" id="line2d_14"/><path clip-path="url(#p755b596264)" d="M232.847 84.518l6.626 19.33m26.502 37.428l6.626-5.685 6.625 7.647 6.626.58 6.626-13.848 6.625 19.709 6.626 37.114 6.625-12.955 6.626-9.233 6.626-7.205 6.625 16.926 6.626-16.88 6.625 21.847 6.626 8.19 6.626-8.476 6.625 6.855 6.626 3.695 6.625-2.7 6.626 10.007 6.626-2.424 6.625-2.967" fill="none" stroke="#2ca02c" stroke-linecap="square" stroke-width="1.5" id="line2d_15"/><path clip-path="url(#p755b596264)" d="M206.345 153.816l6.625 11.61m39.754 14.382l6.626 10.237 6.625 4.23m26.503 1.133l6.625 5.095 6.626 8.772m13.251-2.184l6.626 3.382 6.625 6.707 6.626 7.611 6.625-12.973 6.626 17.442 6.626-11.693 6.625 15.028 6.626-7.656 6.625-4.856 6.626-.36 6.626.35 6.625 17.406" fill="none" stroke="#d62728" stroke-linecap="square" stroke-width="1.5" id="line2d_16"/><path d="M57.6 307.584V41.472" fill="none" stroke="#000" stroke-linecap="square" stroke-width=".8" id="patch_3"/><path d="M414.72 307.584V41.472" fill="none" stroke="#000" stroke-linecap="square" stroke-width=".8" id="patch_4"/><path d="M57.6 307.584h357.12" fill="none" stroke="#000" stroke-linecap="square" stroke-width=".8" id="patch_5"/><path d="M57.6 41.472h357.12" fill="none" stroke="#000" stroke-linecap="square" stroke-width=".8" id="patch_6"/><text x="236.16" y="35.472" font-family="DejaVu Sans" font-size="12" font-weight="400" text-anchor="middle" id="text_15">Coin Flips for 2014 Sub. x-0.5</text><g id="legend_1"><path d="M201.106 108.184H407.72q2 0 2-2V48.472q0-2-2-2H201.106q-2 0-2 2v57.712q0 2 2 2z" fill="#fff" opacity=".8" stroke="#ccc" id="patch_7"/><path d="M203.106 54.57h20" fill="none" stroke="#1f77b4" stroke-linecap="square" stroke-width="1.5" id="line2d_17"/><text x="231.106" y="58.07" font-family="DejaVu Sans" font-size="10" font-weight="400" id="text_16">Coin Flip Lower Bound</text><path d="M203.106 69.249h20" fill="none" stroke="#ff7f0e" stroke-linecap="square" stroke-width="1.5" id="line2d_19"/><text x="231.106" y="72.749" font-family="DejaVu Sans" font-size="10" font-weight="400" id="text_17">Avg. Coins Flipped 2014 Sub. x-0.5</text><path d="M203.106 83.927h20" fill="none" stroke="#2ca02c" stroke-linecap="square" stroke-width="1.5" id="line2d_21"/><text x="231.106" y="87.427" font-family="DejaVu Sans" font-size="10" font-weight="400" id="text_18">Avg. Coins Flipped 2016 Sub. x-0.5</text><path d="M203.106 98.605h20" fill="none" stroke="#d62728" stroke-linecap="square" stroke-width="1.5" id="line2d_23"/><text x="231.106" y="102.105" font-family="DejaVu Sans" font-size="10" font-weight="400" id="text_19">Avg. Coins Flipped 2019 Sub. x-0.5</text></g></g></g><defs><clipPath id="p755b596264"><path d="M57.6 41.472h357.12v266.112H57.6z"/></clipPath></defs></svg>
